img/logo_sm.svg

<svg version="1" xmlns="http://www.w3.org/2000/svg" width="74.318" height="23.041" viewBox="0 0 74.318 23.041" fill="#fff"><path d="M0 1.46c0-.713.585-1.297 1.266-1.297h7.24c5.13 0 8.507 2.726 8.507 7.205v.064c0 4.901-4.091 7.431-8.928 7.431h-5.52v6.881c0 .714-.584 1.297-1.299 1.297-.681 0-1.266-.583-1.266-1.297v-20.284zm8.182 11.067c3.767 0 6.234-2.012 6.234-4.998v-.065c0-3.245-2.435-4.932-6.104-4.932h-5.747v9.995h5.617zM22.448 1.298c0-.714.584-1.298 1.266-1.298.714 0 1.299.584 1.299 1.298v20.446c0 .714-.584 1.297-1.299 1.297-.682 0-1.267-.583-1.267-1.297v-20.446zM31.138 1.33c0-.68.584-1.265 1.266-1.265h.357c.584 0 .942.292 1.299.747l13.799 17.588v-17.134c0-.682.553-1.266 1.266-1.266.682 0 1.234.584 1.234 1.266v20.51c0 .682-.487 1.2-1.17 1.2h-.129c-.552 0-.941-.324-1.332-.778l-14.09-18.011v17.589c0 .682-.552 1.265-1.267 1.265-.682 0-1.233-.583-1.233-1.265v-20.446zM56.039 1.298c0-.714.584-1.298 1.265-1.298.715 0 1.3.584 1.3 1.298v12.429l12.954-13.272c.291-.26.584-.455 1.007-.455.682 0 1.233.617 1.233 1.266 0 .357-.163.649-.422.909l-8.053 7.983 8.637 10.645c.228.292.357.553.357.941 0 .681-.584 1.297-1.299 1.297-.486 0-.812-.259-1.039-.583l-8.474-10.548-4.901 4.9v4.934c0 .714-.585 1.297-1.3 1.297-.682 0-1.266-.583-1.266-1.297v-20.446z"/></svg>

<?xml version="1.0" encoding="utf-8"?>
<!-- Generator: Adobe Illustrator 15.0.0, SVG Export Plug-In . SVG Version: 6.00 Build 0)  -->
<!DOCTYPE svg PUBLIC "-//W3C//DTD SVG 1.0//EN" "http://www.w3.org/TR/2001/REC-SVG-20010904/DTD/svg10.dtd">
<svg version="1.0" id="Layer_1" xmlns="http://www.w3.org/2000/svg" xmlns:xlink="http://www.w3.org/1999/xlink" x="0px" y="0px"
	 width="74.318px" height="23.041px" viewBox="0 0 74.318 23.041" fill="#fff" enable-background="new 0 0 74.318 23.041" xml:space="preserve">
<g>
	<path d="M0,1.46c0-0.713,0.585-1.297,1.266-1.297h7.24c5.13,0,8.507,2.726,8.507,7.205v0.064c0,4.901-4.091,7.431-8.928,7.431
		h-5.52v6.881c0,0.714-0.584,1.297-1.299,1.297C0.585,23.041,0,22.458,0,21.744V1.46z M8.182,12.527
		c3.767,0,6.234-2.012,6.234-4.998V7.464c0-3.245-2.435-4.932-6.104-4.932H2.565v9.995H8.182z"/>
	<path d="M22.448,1.298C22.448,0.584,23.032,0,23.714,0c0.714,0,1.299,0.584,1.299,1.298v20.446c0,0.714-0.584,1.297-1.299,1.297
		c-0.682,0-1.267-0.583-1.267-1.297V1.298z"/>
	<path d="M31.138,1.33c0-0.68,0.584-1.265,1.266-1.265h0.357c0.584,0,0.942,0.292,1.299,0.747L47.859,18.4V1.266
		C47.859,0.584,48.412,0,49.125,0c0.682,0,1.234,0.584,1.234,1.266v20.51c0,0.682-0.487,1.2-1.17,1.2H49.06
		c-0.552,0-0.941-0.324-1.332-0.778L33.638,4.187v17.589c0,0.682-0.552,1.265-1.267,1.265c-0.682,0-1.233-0.583-1.233-1.265V1.33z"
		/>
	<path d="M56.039,1.298C56.039,0.584,56.623,0,57.304,0c0.715,0,1.3,0.584,1.3,1.298v12.429L71.558,0.455
		C71.849,0.195,72.142,0,72.565,0c0.682,0,1.233,0.617,1.233,1.266c0,0.357-0.163,0.649-0.422,0.909l-8.053,7.983l8.637,10.645
		c0.228,0.292,0.357,0.553,0.357,0.941c0,0.681-0.584,1.297-1.299,1.297c-0.486,0-0.812-0.259-1.039-0.583L63.505,11.91l-4.901,4.9
		v4.934c0,0.714-0.585,1.297-1.3,1.297c-0.682,0-1.266-0.583-1.266-1.297V1.298z"/>
</g>
</svg>
